icons/fill-new-time-date.svg

<svg xmlns="http://www.w3.org/2000/svg" width="32px" height="32px" viewBox="0 0 32 32" version="1.1">
    <title>fill-new-time-date</title>
    <g id="fill-new-time-date" stroke-width="1" fill-rule="evenodd">
        <path d="M23,2 C23.5522847,2 24,2.44771525 24,3 L24,5 L29,5 C29.5522847,5 30,5.44771525 30,6 L30,29 C30,29.5522847 29.5522847,30 29,30 L3,30 C2.44771525,30 2,29.5522847 2,29 L2,6 C2,5.44771525 2.44771525,5 3,5 L8,5 L8,3 C8,2.44771525 8.44771525,2 9,2 C9.55228475,2 10,2.44771525 10,3 L10,5 L22,5 L22,3 C22,2.44771525 22.4477153,2 23,2 Z M11,22 L9,22 C8.44771525,22 8,22.4477153 8,23 C8,23.5522847 8.44771525,24 9,24 L11,24 C11.5522847,24 12,23.5522847 12,23 C12,22.4477153 11.5522847,22 11,22 Z M17,22 L15,22 C14.4477153,22 14,22.4477153 14,23 C14,23.5522847 14.4477153,24 15,24 L17,24 C17.5522847,24 18,23.5522847 18,23 C18,22.4477153 17.5522847,22 17,22 Z M23,22 L21,22 C20.4477153,22 20,22.4477153 20,23 C20,23.5522847 20.4477153,24 21,24 L23,24 C23.5522847,24 24,23.5522847 24,23 C24,22.4477153 23.5522847,22 23,22 Z M11,16 L9,16 C8.44771525,16 8,16.4477153 8,17 C8,17.5522847 8.44771525,18 9,18 L11,18 C11.5522847,18 12,17.5522847 12,17 C12,16.4477153 11.5522847,16 11,16 Z M17,16 L15,16 C14.4477153,16 14,16.4477153 14,17 C14,17.5522847 14.4477153,18 15,18 L17,18 C17.5522847,18 18,17.5522847 18,17 C18,16.4477153 17.5522847,16 17,16 Z M23,16 L21,16 C20.4477153,16 20,16.4477153 20,17 C20,17.5522847 20.4477153,18 21,18 L23,18 C23.5522847,18 24,17.5522847 24,17 C24,16.4477153 23.5522847,16 23,16 Z M27,10 L5,10 C4.44771525,10 4,10.4477153 4,11 C4,11.5522847 4.44771525,12 5,12 L27,12 C27.5522847,12 28,11.5522847 28,11 C28,10.4477153 27.5522847,10 27,10 Z" id="&#24418;&#29366;" />
    </g>
</svg>

<svg xmlns="http://www.w3.org/2000/svg" viewBox="0 0 32 32"><path fill="currentColor" d="M23 2a1 1 0 0 1 1 1v2h5a1 1 0 0 1 1 1v23a1 1 0 0 1-1 1H3a1 1 0 0 1-1-1V6a1 1 0 0 1 1-1h5V3a1 1 0 1 1 2 0v2h12V3a1 1 0 0 1 1-1M11 22H9a1 1 0 0 0 0 2h2a1 1 0 0 0 0-2m6 0h-2a1 1 0 0 0 0 2h2a1 1 0 0 0 0-2m6 0h-2a1 1 0 0 0 0 2h2a1 1 0 0 0 0-2m-12-6H9a1 1 0 0 0 0 2h2a1 1 0 0 0 0-2m6 0h-2a1 1 0 0 0 0 2h2a1 1 0 0 0 0-2m6 0h-2a1 1 0 0 0 0 2h2a1 1 0 0 0 0-2m4-6H5a1 1 0 0 0 0 2h22a1 1 0 0 0 0-2"/></svg>
